packages/icons/svg/Product_Aspect_Quantity_32px.svg

<svg xmlns="http://www.w3.org/2000/svg" viewBox="0 0 32 32"><path d="M28.51 11a1.49 1.49 0 00-.75-1.29L17 3.43a2 2 0 00-2 0L4.24 9.7a1.52 1.52 0 00-.75 1.3 1.49 1.49 0 00.75 1.29L6.3 13.5l-2.06 1.2a1.52 1.52 0 00-.75 1.3 1.49 1.49 0 00.75 1.29L6.3 18.5l-2.06 1.2a1.52 1.52 0 00-.75 1.3 1.49 1.49 0 00.75 1.29L15 28.57a2 2 0 002 0l10.76-6.27a1.5 1.5 0 000-2.6l-2.06-1.2 2.06-1.2a1.5 1.5 0 000-2.6l-2.06-1.2 2.06-1.2a1.52 1.52 0 00.75-1.3zM26 21l-10 5.84L6 21l2.3-1.34 6.7 3.91a2 2 0 002 0l6.7-3.91zm0-5l-10 5.84L6 16l2.3-1.34 6.7 3.91a2 2 0 002 0l6.7-3.91zm-10 .84L6 11l10-5.84L26 11z"/></svg>

<svg xmlns="http://www.w3.org/2000/svg" viewBox="0 0 32 32"><defs></defs><g id="Icon"><path  d="M28.51,11a1.49,1.49,0,0,0-.75-1.29L17,3.43a2,2,0,0,0-2,0L4.24,9.7A1.52,1.52,0,0,0,3.49,11a1.49,1.49,0,0,0,.75,1.29L6.3,13.5,4.24,14.7A1.52,1.52,0,0,0,3.49,16a1.49,1.49,0,0,0,.75,1.29L6.3,18.5,4.24,19.7A1.52,1.52,0,0,0,3.49,21a1.49,1.49,0,0,0,.75,1.29L15,28.57a2,2,0,0,0,2,0L27.76,22.3a1.5,1.5,0,0,0,0-2.6L25.7,18.5l2.06-1.2a1.5,1.5,0,0,0,0-2.6L25.7,13.5l2.06-1.2A1.52,1.52,0,0,0,28.51,11ZM26,21,16,26.84,6,21l2.3-1.34L15,23.57a2,2,0,0,0,2,0l6.7-3.91Zm0-5L16,21.84,6,16l2.3-1.34L15,18.57a2,2,0,0,0,2,0l6.7-3.91Zm-10,.84L6,11,16,5.16,26,11Z"/></g></svg>
